X: 13021
T: Finbar Dwyer's
R: reel
M: 4/4
K: Bdorian
F/G/F B,F FECF|EA,CE ~A3G|F2 AF FECE|FCEC CB,B,F|
F/_E/B, EF ~A3=E|G/F/E FA EFAB|~c3A BEGB|AFEC B,2 C/_E/=E||
F2 B,F FECF|EA,CE ~A3G|F2 AF FECE|A,C F/E/C B,B,B,F|
F/_E/B, EF (3ABA =EA|FEFA EFAB|cEAc (4BcBE GB|AFEC B,3A||
F2 B/B/B BcBA|FEFG AFEG|FBBc dcdf|(3efe cA FBBc|
dcde fded|ceAe fAeA|{d}AFEC EA,CE|FCEC (3B,CB, B,G||
FB{c}BF (4BcBF BA|FBBG AFEG|FBBc ~d3f|(3efe cA FBBc|
dcde fded|ceAe fAeA|{d}AFEC EA,CE|FCEC B,2 C/_E/=E||

